X:1
T:Donna i begli occchi
T:Paolo  Bellasio
T:Source : Melodia Olympica---Anversa---P.Phalesio & G.Bellero---1591. Editor : André Vierendeels (06/01/14)
T:Donna i begli occhi
C:Paolo  Bellasio
%%score [ 1 2 3 4 ]
L:1/8
Q:1/4=100
M:4/4
K:F
V:1 treble nm="Canto" snm="C"
V:2 treble nm="Alto" snm="A"
V:3 treble-8 nm="Tenor" snm="T"
V:4 bass nm="Basso" snm="B"
V:1
 c8 | A4 B2 A2- | A2 G2 A2 F2 | A6 B2 | c2 BA G4 | A8 | z8 | z4 e2 f2 | d4 c4 | z4 c4- | c4 A4- | %11
w: Don-|na'i beg- gli'oc-|* chi vo- stri|mi fan|guer- * * *|ra,||mi fan|guer- ra,|e|_ ben|
 A2 G2 F4- | F2 E2 D4 | C4 z4 | z4 c4 | d2 f3 f e2 | d4 c2 c2 | B2 A3 A G2 | F4 c2 c2 | %19
w: _ ch'io sia|_ di ter-|ra,|si|pos- sen- t'e lo|guar- do, si|pos- sen- t'e lo|guar- do, si|
 B2 A3 A G2 | F4 c4 | z8 | z4 z2 d2 | e2 ^f2 g2 e2 |"^-natural" f2 ed c2 d2 | c6 c2 | c8 | A8 | %28
w: pos- sen- t'e lo|guar- do,||che|gia son tut- to|fo- * * * co'e|gia tut-|t'ar-|do,|
 z8 | z8 | z8 | c8 | c4 B4- | B2 B2 B4 | A4 G4 | G6 G2 | A4 =B4 | c4 c2 f2 | e2 d2 ^c4 | %39
w: |||ne|di la-|* gri- me|piog- gia'o|di so-|spi- ri,|ven- to smor-|zar gia ma-|
"^#" c2 d2 d2 e2 | f3 f f2 f2 | e4 d4- | d4 c4- | c4 =B4 | c4 A2 B2- | BB G2 F4 | z2 G2 A2 B2 | %47
w: i, po- tran la|fiam- ma de li|miei mar-|* ti-|* ri,|si co- cen-|* t'e l'ar- dor|de vo- stri|
 c2 BA G2 A2 | =B2 c4 B2 | c4 z4 | z2 G2 A2 B2 | c2 BA G2 A2 |"^-natural" B2 c4 B2 | c4 z2 A2 | %54
w: ra- * * * *||i,|de vo- stri|ra- * * * *||i, si|
 d2 B3 B c2 | F4 z2 c2- | c2 d2 e2 f2- | f2 ed e4 | f8 |] %59
w: co- cen- t'e l'ar-|dor de|_ vo- stri ra-||i.|
V:2
 z4 F4- | F4 D4- | D2 _E2 D4 | C2 D4 G2 | E2 F2 F2 E2 | F8 | z8 | z4 z2 A2 | F2 G4 F2 | %9
w: Don-|* na'i|_ beg- gli'oc-|chi vo- stri|mi fan guer- *|ra,||mi|fan guer- *|
 E2 F3 E/D/ E2 | F4 F4- | F4 D4- | D2 C2 B,4 | A,4 F4- | F4 E4 | F4 z2 c2 | B2 A3 A G2 | F4 c2 c2 | %18
w: |ra, e|_ ben|_ ch'io sia|di ter-||ra, si|pos- sen- t'e lo|sguar- do, si|
 B2 A3 A G2 | F4 c4 | z2 D2 E2 F2 | G2 E2 F2 G2 | A2 GF E2 G2 | G2 A2 z2 c2 | A2 B2 c2 BA | %25
w: pos- sen- t'e lo|sguar- do,|che gia son|tut- to fo- co'e|gia _ _ _ tut-|t'ar- do, e|gia tut- t'ar- * *|
 G2 F2 G4 | A8 | z8 | z4 G4- | G4 G4 | F6 F2 | F4 E4- | E4 D4 | G6 F2 |"^-natural" E4 D4 | %35
w: |do,||ne|_ di|la- gri-|me piog-|* gia'o|di so-|spi- ri,|
 E4 D2 D2 | E2 ^F2 G4 | A6 c2 | c2 B2 A4 | A2 A2 =B2 c2 | c3 c c2 d2 | c4 A4 | G8 | G8 | %44
w: ven- to smor-|zar gia ma-|i, po-|tran la fiam-|ma, po- tran la|fiam- ma de li|miei mar-|ti-|ri,|
 z2 C2 F2 D2- | DD E2 F4 | z2 C2 C4 | F4 E2 DC | D8 | E2 E2 A2 F2- | FF G2 C2 G2 | F2 F2 E2 DC | %52
w: si co- cen-|* t'e l'ar- dor|de vo-|stri ra- * *||i, si co- cen-|* t'e l'ar- dor de|vo- stri ra- * *|
 D8 | E4 z2 F2 | B2 G3 G A2 | B2 AG F2 G2 | A2 B2 c2 d2 | c3 B/A/ G4 | A8 |] %59
w: |i, si|co- cen- t'e l'ar-|dor _ _ _ de|vo- stri ra- *||i.|
V:3
 z8 | z8 | z8 | z8 | z4 c4- | c4 A4 | B2 A4 G2 | A2 F2 A4- | A2 B2 c4- | c2 BA G4 | A8 | z8 | F8 | %13
w: ||||Don-|* na'i|beg- gli'oc- chi|vo- stri mi|_ fan guer-||ra,||e|
 A6 B2 | c2 A2 G4 | B4 c4 | d2 f3 f e2 | d4 c2 c2 | d2 f3 f e2 | d4 c2 G2 | A2 B2 c2 A2 | %21
w: ben ch'io|sia di ter-|ra, si|pos- sen- t'e lo|sguar- do, si|pos- sen- t'e lo|sguar- do, che|gia son tut- to|
 B2 c2 d2 cB | A2 B2 c2 d2 | c4 d2 g2 | f2 g2 a2 gf | e2 f4 e2 | f8 | z4 c4- | c4 c4 | B6 B2 | %30
w: fo- co'e gia _ _|_ _ _ tut-|t'ar- do, e|gia tut- t'ar- * *||do,|ne|_ di|la- gri-|
 B4 A4- | A4 G2 F2 | G4 G4 | _e6 d2 | c4 =B4 | c4 G2 G2 | c4 d4 | f4 f2 a2 | g2 g2 e4 | %39
w: me piog-||* gia'o|di so-|spi- ri,|ven- to smor-|za gia|ma- i, po-|tran la fiam-|
 e2 ^f2 g2 g2 | a3 a a2 a2 | g4 f4 | _e8 | d8 | z8 | z2 c2 A2 B2- | BB G2 F2 G2 | A2 B2 c2 BA | %48
w: ma, po- tran la|fiam- ma de li|miei mar-|ti-|ri,||si co- cen-|* t'e l'ar- dor de|vo- stri ra- * *|
 G2 F2 G4 | c2 c2 f2 d2- | dd e2 f2 ed | c2 d2 e2 f2 | g2 a2 g4 | g4 z2 c2 | f2 _e3 e e2 | %55
w: |i, si co- cen-|* t'e l'ar- dor _ _|_ de vo- stri|ra- * *|i, si|co- cen- t'e l'ar-|
 d2 cB A2 G2 | c2 F2 G4- | G2 AB c4 | c8 |] %59
w: dor _ _ _ de|vo- stri ra-||i.-|
V:4
 z8 | z8 | z8 | z8 | z8 | F,8 | D,6 _E,2 | D,4 C,2 D,2- | D,2 G,2 E,2 F,2 | C,8 | F,8 | z4 B,,4 | %12
w: |||||Don-|na'i beg-|gli'oc- chi vo-|* stri mi fan|guer-|ra,|e|
 D,6 E,2 | F,4 D,4 | C,8 | B,,4 z4 | z4 C,4 | D,2 F,3 F, E,2 | D,4 C,2 C,2 | D,2 F,3 F, E,2 | %20
w: ben ch'io|sia di|ter-|ra,|si|pos- sen- t'e lo|sguar- do, si|pos- sen- t'e lo|
 D,4 C,4 | z8 | z2 G,2 A,2 B,2 | C2 A,2 B,2 C2 | D2 CB, A,2 B,2 | C8 | F,8 | F,8 | F,4 _E,4- | %29
w: sguar- do,||che gia son|tut- to fo- co'e|gia _ _ _ tut-|t'ar-|do,|ne|di la-|
 E,2 _E,2 E,4 | D,8 | C,8 | z8 | z8 | z4 z2 G,2 | C6 B,2 | A,4 G,4 | F,4 F,2 F,2 | C2 G,2 A,4 | %39
w: * gri- me|piog-|gia,|||o|di so-|spi- ri,|ven- to smor-|zar gia ma-|
 A,2 D,2 G,2 C,2 | F,3 F, F,2 D,2 | E,4 F,4 | G,8 | G,8 | z8 | z2 C,2 F,2 D,2- | D,D, E,2 F,4 | %47
w: i, po- tran la|fiam- ma de li|miei mar-|ti-|ri,||si co- cen-|* t'e l'ar- dor,|
 z8 | z8 | z2 C2 A,2 B,2- | B,B, G,2 F,2 G,2 | A,2 B,2 C2 B,A, | G,2 F,2 G,4 | C,4 F,4 | %54
w: ||si co- cen-|* t'e l'ar- dor de|vo- stri ra- * *||i, si|
 D,2 _E,3 E, C,2 |"^-natural" B,,2 C,2 D,2 E,2 | F,2 E,D, C,2 B,,2 | C,8 | F,8 |] %59
w: co- cen- t'e l'ar-|dor de vo- stri|ra- * * * *||i.|

